packages/icon/src/svg/star.icon.svg

<svg role="img" aria-label="star empty icon" xmlns="http://www.w3.org/2000/svg" viewBox="0 0 24 24">
    <path d="M7.71590761,13.8522772 L2.25298114,9.9052852 C2.0291483,9.74356485 1.97879619,9.43101223 2.14051654,9.2071794 C2.23452325,9.07706721 2.38528246,9 2.54580174,9 L9.32999992,9 L11.5259342,2.42042174 C11.6133563,2.15848284 11.8965694,2.01700903 12.1585083,2.10443114 C12.3076212,2.15419757 12.4246481,2.2711924 12.4744554,2.42029163 L14.6724396,9 L21.4541983,9 C21.7303406,9 21.9541983,9.22385763 21.9541983,9.5 C21.9541983,9.66051929 21.877131,9.81127849 21.7470189,9.9052852 L16.2840924,13.8522772 L18.5094075,20.5282225 C18.5967314,20.7901941 18.4551514,21.0733541 18.1931797,21.160678 C18.0405447,21.2115563 17.8727519,21.1858764 17.7423206,21.091676 L12.0021534,16.9459997 L6.25731585,21.0924971 C6.03340576,21.2541105 5.72087724,21.203609 5.55926386,20.9796989 C5.46513169,20.8492818 5.43948525,20.6815443 5.49034729,20.5289581 L7.71590761,13.8522772 Z M9.95965361,13.1293667 L8.66581794,17.0108737 L12.0024956,14.6025331 L15.3332502,17.0080782 L14.0403464,13.1293667 L17.1259534,10.9 L13.3039341,10.9 L12.0008229,6.99911112 L10.6989012,10.9 L6.87404656,10.9 L9.95965361,13.1293667 Z"/>
</svg>

<svg aria-label="star icon" viewBox="0 0 24 24"><path d="M7.716 13.852L2.253 9.905A.5.5 0 012.546 9H9.33l2.196-6.58a.5.5 0 01.948 0L14.672 9h6.782a.5.5 0 01.293.905l-5.463 3.947 2.225 6.676a.5.5 0 01-.767.564l-5.74-4.146-5.745 4.146a.5.5 0 01-.767-.563l2.226-6.677zm2.244-.723l-1.294 3.882 3.336-2.408 3.331 2.405-1.293-3.879 3.086-2.229h-3.822L12 7l-1.302 3.9H6.874l3.086 2.23z"/></svg>
